Newaita-dark/apps/32/gufw.svg

<?xml version="1.0" encoding="UTF-8"?>
<svg xmlns="http://www.w3.org/2000/svg" xmlns:xlink="http://www.w3.org/1999/xlink" width="32pt" height="32pt" viewBox="0 0 32 32" version="1.1">
<defs>
<radialGradient id="radial0" gradientUnits="userSpaceOnUse" cx="450.908936" cy="189.579361" fx="450.908936" fy="189.579361" r="21.166656" gradientTransform="matrix(0.00000017417,-0.0781325,-0.140638,-0.000000101539,42.869348,63.595329)">
<stop offset="0" style="stop-color:rgb(0%,0%,0%);stop-opacity:0.313725;"/>
<stop offset="0.222222" style="stop-color:rgb(0%,0%,0%);stop-opacity:0.27451;"/>
<stop offset="1" style="stop-color:rgb(0%,0%,0%);stop-opacity:0;"/>
</radialGradient>
<radialGradient id="radial1" gradientUnits="userSpaceOnUse" cx="450.908936" cy="189.579361" fx="450.908936" fy="189.579361" r="21.166656" gradientTransform="matrix(-0.00000017417,0.0781325,0.140638,0.000000101539,-11.116312,-7.527482)">
<stop offset="0" style="stop-color:rgb(0%,0%,0%);stop-opacity:0.313725;"/>
<stop offset="0.222222" style="stop-color:rgb(0%,0%,0%);stop-opacity:0.27451;"/>
<stop offset="1" style="stop-color:rgb(0%,0%,0%);stop-opacity:0;"/>
</radialGradient>
<radialGradient id="radial2" gradientUnits="userSpaceOnUse" cx="450.908936" cy="189.579361" fx="450.908936" fy="189.579361" r="21.166656" gradientTransform="matrix(-0.00000017417,-0.0781325,0.140638,-0.000000101539,-11.116312,63.595329)">
<stop offset="0" style="stop-color:rgb(0%,0%,0%);stop-opacity:0.313725;"/>
<stop offset="0.222222" style="stop-color:rgb(0%,0%,0%);stop-opacity:0.27451;"/>
<stop offset="1" style="stop-color:rgb(0%,0%,0%);stop-opacity:0;"/>
</radialGradient>
<radialGradient id="radial3" gradientUnits="userSpaceOnUse" cx="450.908936" cy="189.579361" fx="450.908936" fy="189.579361" r="21.166656" gradientTransform="matrix(0.00000017417,0.0781325,-0.140638,0.000000101539,42.869346,-7.527483)">
<stop offset="0" style="stop-color:rgb(0%,0%,0%);stop-opacity:0.313725;"/>
<stop offset="0.222222" style="stop-color:rgb(0%,0%,0%);stop-opacity:0.27451;"/>
<stop offset="1" style="stop-color:rgb(0%,0%,0%);stop-opacity:0;"/>
</radialGradient>
<linearGradient id="linear0" gradientUnits="userSpaceOnUse" x1="255.323059" y1="233.5" x2="255.323044" y2="254.666656" gradientTransform="matrix(0.0133601,0,0,0.062506,12.465386,13.438784)">
<stop offset="0" style="stop-color:rgb(0%,0%,0%);stop-opacity:0.27451;"/>
<stop offset="1" style="stop-color:rgb(0%,0%,0%);stop-opacity:0;"/>
</linearGradient>
<linearGradient id="linear1" gradientUnits="userSpaceOnUse" x1="158.75" y1="233.5" x2="158.75" y2="-168.666672" >
<stop offset="0" style="stop-color:rgb(12.941176%,58.823529%,95.294118%);stop-opacity:1;"/>
<stop offset="1" style="stop-color:rgb(25.882353%,64.705882%,96.078431%);stop-opacity:1;"/>
</linearGradient>
<linearGradient id="linear2" gradientUnits="userSpaceOnUse" x1="1240" y1="1695.118164" x2="1240" y2="175.118134" >
<stop offset="0" style="stop-color:rgb(74.117647%,74.117647%,74.117647%);stop-opacity:1;"/>
<stop offset="1" style="stop-color:rgb(87.843137%,87.843137%,87.843137%);stop-opacity:1;"/>
</linearGradient>
<linearGradient id="linear3" gradientUnits="userSpaceOnUse" x1="1240" y1="1695.118164" x2="1240" y2="175.118118" >
<stop offset="0" style="stop-color:rgb(12.941176%,58.823529%,95.294118%);stop-opacity:1;"/>
<stop offset="1" style="stop-color:rgb(25.882353%,64.705882%,96.078431%);stop-opacity:1;"/>
</linearGradient>
<linearGradient id="linear4" gradientUnits="userSpaceOnUse" x1="1238.371094" y1="1695.118164" x2="1240" y2="175.118118" gradientTransform="matrix(-0.264583,0,0,0.264583,507.569031,-215)">
<stop offset="0" style="stop-color:rgb(74.117647%,74.117647%,74.117647%);stop-opacity:1;"/>
<stop offset="1" style="stop-color:rgb(87.843137%,87.843137%,87.843137%);stop-opacity:1;"/>
</linearGradient>
</defs>
<g id="surface1">
<path style=" stroke:none;fill-rule:nonzero;fill:url(#radial0);" d="M 16.539062 28.035156 L 19.183594 28.035156 L 19.183594 26.710938 L 16.539062 26.710938 Z M 16.539062 28.035156 "/>
<path style=" stroke:none;fill-rule:nonzero;fill:url(#radial1);" d="M 15.214844 28.035156 L 12.570312 28.035156 L 12.570312 29.355469 L 15.214844 29.355469 Z M 15.214844 28.035156 "/>
<path style=" stroke:none;fill-rule:nonzero;fill:url(#radial2);" d="M 15.214844 28.035156 L 12.570312 28.035156 L 12.570312 26.710938 L 15.214844 26.710938 Z M 15.214844 28.035156 "/>
<path style=" stroke:none;fill-rule:nonzero;fill:url(#radial3);" d="M 16.539062 28.035156 L 19.183594 28.035156 L 19.183594 29.355469 L 16.539062 29.355469 Z M 16.539062 28.035156 "/>
<path style=" stroke:none;fill-rule:nonzero;fill:url(#linear0);" d="M 15.214844 27.703125 L 16.539062 27.703125 L 16.539062 29.355469 L 15.214844 29.355469 Z M 15.214844 27.703125 "/>
<path style="fill-rule:nonzero;fill:url(#linear1);stroke-width:3;stroke-linecap:square;stroke-linejoin:round;stroke:rgb(12.941177%,12.941177%,12.941177%);stroke-opacity:1;stroke-miterlimit:4;" d="M 253.975747 -168.691922 C 391.587605 -168.691922 444.52005 -136.944954 444.52005 -105.135492 C 444.52005 53.59935 328.093669 233.519669 253.975747 233.519669 C 179.920318 233.519669 63.493937 53.59935 63.493937 -105.135492 C 63.493937 -136.944954 126.987873 -168.691922 253.975747 -168.691922 Z M 253.975747 -168.691922 " transform="matrix(0.062506,0,0,0.062506,0,13.438783)"/>
<path style="fill-rule:nonzero;fill:url(#linear2);stroke-width:11.338583;stroke-linecap:square;stroke-linejoin:round;stroke:rgb(12.941177%,12.941177%,12.941177%);stroke-opacity:1;stroke-miterlimit:4;" d="M 959.908384 175.022665 L 959.908384 1695.192537 C 1240.039128 1695.192537 1680.07587 1015.178699 1680.07587 414.999761 C 1680.07587 295.011213 1480.016224 175.022665 959.908384 175.022665 Z M 959.908384 175.022665 " transform="matrix(0.016538,0,0,0.016538,0,0)"/>
<path style="fill-rule:nonzero;fill:url(#linear3);stroke-width:11.338583;stroke-linecap:square;stroke-linejoin:round;stroke:rgb(12.941177%,12.941177%,12.941177%);stroke-opacity:1;stroke-miterlimit:4;" d="M 959.908384 175.022665 L 959.908384 895.190151 L 1598.351386 895.190151 C 1649.133941 738.827122 1680.07587 574.197166 1680.07587 414.999761 C 1680.07587 295.011213 1480.016224 175.022665 959.908384 175.022665 Z M 959.908384 175.022665 " transform="matrix(0.016538,0,0,0.016538,0,0)"/>
<path style="fill-rule:nonzero;fill:url(#linear4);stroke-width:3;stroke-linecap:square;stroke-linejoin:round;stroke:rgb(12.941177%,12.941177%,12.941177%);stroke-opacity:1;stroke-miterlimit:4;" d="M 253.538288 -168.691922 L 253.538288 21.852382 L 84.679414 21.852382 C 71.243197 -19.518668 63.056478 -63.077008 63.056478 -105.197986 C 63.056478 -136.944954 115.988924 -168.691922 253.538288 -168.691922 Z M 253.538288 -168.691922 " transform="matrix(0.062506,0,0,0.062506,0,13.438783)"/>
<path style=" stroke:none;fill-rule:nonzero;fill:rgb(100%,100%,100%);fill-opacity:0.392157;" d="M 15.875 2.894531 C 7.9375 2.894531 3.96875 4.878906 3.96875 6.863281 C 3.96875 6.953125 3.96875 7.039062 3.972656 7.125 C 4.0625 5.164062 8.03125 3.226562 15.875 3.226562 C 24.367188 3.226562 27.699219 5.160156 27.78125 7.121094 C 27.785156 7.035156 27.785156 6.949219 27.785156 6.863281 C 27.785156 4.878906 24.476562 2.894531 15.875 2.894531 Z M 15.875 2.894531 "/>
<path style=" stroke:none;fill-rule:nonzero;fill:rgb(0%,0%,0%);fill-opacity:0.235294;" d="M 27.785156 6.820312 C 27.730469 16.714844 20.492188 27.878906 15.875 27.878906 C 11.261719 27.878906 4.023438 16.71875 3.96875 6.824219 C 3.96875 6.839844 3.96875 6.851562 3.96875 6.863281 C 3.96875 16.789062 11.246094 28.035156 15.875 28.035156 C 20.507812 28.035156 27.785156 16.789062 27.785156 6.863281 C 27.785156 6.851562 27.785156 6.835938 27.785156 6.820312 Z M 27.785156 6.820312 "/>
<path style=" stroke:none;fill-rule:nonzero;fill:rgb(12.941177%,12.941177%,12.941177%);fill-opacity:1;" d="M 15.875 2.800781 C 11.898438 2.800781 8.914062 3.296875 6.914062 4.046875 C 5.914062 4.425781 5.160156 4.863281 4.648438 5.339844 C 4.140625 5.816406 3.875 6.335938 3.875 6.867188 C 3.875 11.851562 5.699219 17.152344 8.105469 21.21875 C 9.308594 23.25 10.65625 24.972656 12 26.191406 C 13.34375 27.410156 14.679688 28.128906 15.875 28.128906 C 17.070312 28.128906 18.410156 27.410156 19.753906 26.191406 C 21.097656 24.972656 22.445312 23.25 23.648438 21.21875 C 26.054688 17.152344 27.878906 11.851562 27.878906 6.867188 C 27.878906 6.34375 27.65625 5.820312 27.199219 5.34375 C 26.742188 4.863281 26.050781 4.425781 25.089844 4.050781 C 23.167969 3.296875 20.183594 2.800781 15.875 2.800781 Z M 15.875 2.988281 C 20.167969 2.988281 23.136719 3.488281 25.019531 4.222656 C 25.964844 4.59375 26.632812 5.019531 27.066406 5.472656 C 27.496094 5.925781 27.691406 6.394531 27.691406 6.867188 C 27.691406 11.804688 25.875 17.082031 23.484375 21.121094 C 22.289062 23.140625 20.953125 24.851562 19.628906 26.050781 C 18.304688 27.253906 16.996094 27.941406 15.875 27.941406 C 14.757812 27.941406 13.449219 27.253906 12.125 26.050781 C 10.800781 24.851562 9.460938 23.140625 8.265625 21.121094 C 5.875 17.082031 4.0625 11.804688 4.0625 6.867188 C 4.0625 6.402344 4.292969 5.929688 4.777344 5.476562 C 5.261719 5.023438 5.996094 4.59375 6.980469 4.222656 C 8.949219 3.484375 11.914062 2.988281 15.875 2.988281 Z M 15.875 2.988281 "/>
</g>
</svg>

<svg xmlns="http://www.w3.org/2000/svg" width="32pt" height="32pt" viewBox="0 0 32 32"><defs><radialGradient id="a" gradientUnits="userSpaceOnUse" cx="450.909" cy="189.579" fx="450.909" fy="189.579" r="21.167" gradientTransform="matrix(0 -.07813 -.14064 0 42.87 63.595)"><stop offset="0" stop-opacity=".314"/><stop offset=".222" stop-opacity=".275"/><stop offset="1" stop-opacity="0"/></radialGradient><radialGradient id="b" gradientUnits="userSpaceOnUse" cx="450.909" cy="189.579" fx="450.909" fy="189.579" r="21.167" gradientTransform="matrix(0 .07813 .14064 0 -11.116 -7.527)"><stop offset="0" stop-opacity=".314"/><stop offset=".222" stop-opacity=".275"/><stop offset="1" stop-opacity="0"/></radialGradient><radialGradient id="c" gradientUnits="userSpaceOnUse" cx="450.909" cy="189.579" fx="450.909" fy="189.579" r="21.167" gradientTransform="matrix(0 -.07813 .14064 0 -11.116 63.595)"><stop offset="0" stop-opacity=".314"/><stop offset=".222" stop-opacity=".275"/><stop offset="1" stop-opacity="0"/></radialGradient><radialGradient id="d" gradientUnits="userSpaceOnUse" cx="450.909" cy="189.579" fx="450.909" fy="189.579" r="21.167" gradientTransform="matrix(0 .07813 -.14064 0 42.87 -7.527)"><stop offset="0" stop-opacity=".314"/><stop offset=".222" stop-opacity=".275"/><stop offset="1" stop-opacity="0"/></radialGradient><linearGradient id="e" gradientUnits="userSpaceOnUse" x1="255.323" y1="233.5" x2="255.323" y2="254.667" gradientTransform="matrix(.01336 0 0 .0625 12.465 13.439)"><stop offset="0" stop-opacity=".275"/><stop offset="1" stop-opacity="0"/></linearGradient><linearGradient id="f" gradientUnits="userSpaceOnUse" x1="158.75" y1="233.5" x2="158.75" y2="-168.667"><stop offset="0" stop-color="#2196f3"/><stop offset="1" stop-color="#42a5f5"/></linearGradient><linearGradient id="g" gradientUnits="userSpaceOnUse" x1="1240" y1="1695.118" x2="1240" y2="175.118"><stop offset="0" stop-color="#bdbdbd"/><stop offset="1" stop-color="#e0e0e0"/></linearGradient><linearGradient id="h" gradientUnits="userSpaceOnUse" x1="1240" y1="1695.118" x2="1240" y2="175.118"><stop offset="0" stop-color="#2196f3"/><stop offset="1" stop-color="#42a5f5"/></linearGradient><linearGradient id="i" gradientUnits="userSpaceOnUse" x1="1238.371" y1="1695.118" x2="1240" y2="175.118" gradientTransform="matrix(-.26458 0 0 .26458 507.569 -215)"><stop offset="0" stop-color="#bdbdbd"/><stop offset="1" stop-color="#e0e0e0"/></linearGradient></defs><path d="M16.54 28.035h2.644v-1.324h-2.645zm0 0" fill="url(#a)"/><path d="M15.215 28.035H12.57v1.32h2.645zm0 0" fill="url(#b)"/><path d="M15.215 28.035H12.57v-1.324h2.645zm0 0" fill="url(#c)"/><path d="M16.54 28.035h2.644v1.32h-2.645zm0 0" fill="url(#d)"/><path d="M15.215 27.703h1.324v1.652h-1.324zm0 0" fill="url(#e)"/><path d="M253.976-168.692c137.612 0 190.544 31.747 190.544 63.557 0 158.734-116.426 338.655-190.544 338.655-74.056 0-190.482-179.92-190.482-338.655 0-31.81 63.494-63.557 190.482-63.557zm0 0" transform="matrix(.0625 0 0 .0625 0 13.439)" fill="url(#f)" stroke-width="3" stroke-linecap="square" stroke-linejoin="round" stroke="#212121"/><path d="M959.908 175.023v1520.17c280.131 0 720.168-680.014 720.168-1280.193 0-119.989-200.06-239.977-720.168-239.977zm0 0" transform="rotate(.891) scale(.01654)" fill="url(#g)" stroke-width="11.339" stroke-linecap="square" stroke-linejoin="round" stroke="#212121"/><path d="M959.908 175.023V895.19h638.443c50.783-156.363 81.725-320.993 81.725-480.19 0-119.989-200.06-239.977-720.168-239.977zm0 0" transform="rotate(.891) scale(.01654)" fill="url(#h)" stroke-width="11.339" stroke-linecap="square" stroke-linejoin="round" stroke="#212121"/><path d="M253.538-168.692V21.852H84.68c-13.436-41.37-21.623-84.929-21.623-127.05 0-31.747 52.933-63.494 190.482-63.494zm0 0" transform="matrix(.0625 0 0 .0625 0 13.439)" fill="url(#i)" stroke-width="3" stroke-linecap="square" stroke-linejoin="round" stroke="#212121"/><path d="M15.875 2.895c-7.938 0-11.906 1.984-11.906 3.968 0 .09 0 .176.004.262.09-1.96 4.058-3.898 11.902-3.898 8.492 0 11.824 1.933 11.906 3.894.004-.086.004-.172.004-.258 0-1.984-3.308-3.968-11.91-3.968zm0 0" fill="#fff" fill-opacity=".392"/><path d="M27.785 6.82c-.055 9.895-7.293 21.059-11.91 21.059-4.613 0-11.852-11.16-11.906-21.055v.04c0 9.925 7.277 21.171 11.906 21.171 4.633 0 11.91-11.246 11.91-21.172V6.82zm0 0" fill-opacity=".235"/><path d="M15.875 2.8c-3.977 0-6.96.497-8.96 1.247-1 .379-1.755.816-2.267 1.293-.507.476-.773.996-.773 1.527 0 4.985 1.824 10.285 4.23 14.352C9.31 23.25 10.656 24.973 12 26.19c1.344 1.22 2.68 1.938 3.875 1.938 1.195 0 2.535-.719 3.879-1.938 1.344-1.218 2.691-2.941 3.894-4.972 2.407-4.067 4.23-9.367 4.23-14.352 0-.523-.222-1.047-.679-1.523-.457-.48-1.148-.918-2.11-1.293-1.921-.754-4.905-1.25-9.214-1.25zm0 .188c4.293 0 7.262.5 9.145 1.235.945.37 1.613.797 2.046 1.25.43.453.625.922.625 1.394 0 4.938-1.816 10.215-4.207 14.254-1.195 2.02-2.53 3.73-3.855 4.93-1.324 1.203-2.633 1.89-3.754 1.89-1.117 0-2.426-.687-3.75-1.89-1.324-1.2-2.664-2.91-3.86-4.93-2.39-4.039-4.203-9.316-4.203-14.254 0-.465.231-.937.715-1.39.485-.454 1.22-.883 2.203-1.254 1.97-.739 4.934-1.235 8.895-1.235zm0 0" fill="#212121"/></svg>
